X:89
T:Flickornas Michaelidans
R:sl\"angpolska
A:Sm{\aa}land
B:SvL Sml 48, efter Ida-Sofia Jonsson-Erlandsson, B\"ackebo
Z:id:hn-sp-89
M:3/4
L:1/16
K:Am
ve>(fe)>(d c)>(Bc)>(B A2A>(c | B)>(AB)>(A ^G2A2) A,4 |
A2A>(B c)>(Bc)>(d e2)e>(^f | g)>(^fg)>(e ^d2e2) [e4e4] :|
|: e2(ea) a2(a^f) a2a2 | ^f2(fg) f2(fe) d2d2 | d2(e^f) g2(gf) g2g2 |
e2(e^f) e2(ec) B2c2 | A2(AB) (cB)(cd) e2(ed) | (cB)(cA) (^G2A2) [A4A,4] :|
<end>
<start>
